X:1
T:Wilmot, 87.87
T:Carl Maria von Weber, arr by Lowell Mason, 1844
T:Wilmot, 87.87
T:Public Domain
C:Carl Maria von Weber, arr by Lowell Mason, 1844
Z:Public Domain
%%score 1 ( 2 3 )
L:1/8
M:4/4
K:Bb
V:1 treble 
V:2 bass 
V:3 bass 
V:1
 [DB]2 ([Fd]>[Ec]) [DB]2 [DF]2 | [DB]2 ([Fd]>[Ec]) [DB]2 [DF]2 | [EG]2 [EB]2 [DF]2 [Fd]2 | %3
 ([Fd][Ec])([DB][CA]) [DB]4 | [Ee]2 [EG]2 F2 [DB]2 | ([Fd][Ec])([DB][CA]) [DB]2 [DF]2 | %6
 [EG]2 [EB]2 [DF]2 [Fd]2 | [Ec]2 [EA]2 [DB]4 |] %8
V:2
 [B,,F,]2 [B,,F,]2 [B,,F,]2 [B,,B,]2 | [B,,F,]2 [B,,F,]2 [B,,F,]2 [B,,B,]2 | %2
 [E,B,]2 [G,B,]2 B,2 [B,,B,]2 | F,2 F,2 [B,,F,]4 | [G,B,]2 [E,B,]2 [D,B,]2 [B,,B,]2 | %5
 F,2 F,2 [B,,F,]2 [B,,B,]2 | [E,B,]2 [G,B,]2 B,2 [B,,B,]2 | [F,A,]2 [F,C]2 [B,,B,]4 |] %8
V:3
 x8 | x8 | x8 | F,2 F,2 x4 | x8 | F,2 F,2 x4 | x4 B,2 x2 | x8 |] %8

